src/images/icons/feature-creativity.svg

<svg width="134px" height="134px" viewBox="0 0 134 134" xmlns="http://www.w3.org/2000/svg" xmlns:xlink="http://www.w3.org/1999/xlink">
    <defs>
        <linearGradient x1="67.0943071%" y1="9.94225577%" x2="27.7773538%" y2="100%" id="linearGradient-1">
            <stop stop-color="#C9E7F2" offset="0%"></stop>
            <stop stop-color="#D6B1E0" offset="51.2583893%"></stop>
            <stop stop-color="#E8D49E" offset="100%"></stop>
        </linearGradient>
    </defs>
    <g stroke="none" stroke-width="1" fill="none" fill-rule="evenodd" opacity="0.82686942">
        <path d="M69.4904495,88.4869022 C70.1393193,88.4869022 70.6730108,88.9771015 70.7371876,89.614179 L70.7436577,89.7434511 C70.7436577,90.4374239 70.1808922,91 69.4904495,91 L64.5095505,91 C63.8174227,91 63.2563423,90.4422622 63.2563423,89.7434511 C63.2563423,89.0494783 63.8191078,88.4869022 64.5095505,88.4869022 L69.4904495,88.4869022 Z M72.7478558,84.9685654 C73.3900449,84.9685654 73.9182415,85.4587646 73.9817576,86.0958421 L73.9881611,86.2251142 C73.9881611,86.919087 73.4229625,87.4816631 72.7478558,87.4816631 L61.2521442,87.4816631 C60.5671425,87.4816631 60.0118389,86.9239253 60.0118389,86.2251142 C60.0118389,85.5311415 60.5770375,84.9685654 61.2521442,84.9685654 L72.7478558,84.9685654 Z M72.7478558,81.4502285 C73.3900449,81.4502285 73.9182415,81.9404278 73.9817576,82.5775052 L73.9881611,82.7067774 C73.9881611,83.4007502 73.4229625,83.9633263 72.7478558,83.9633263 L61.2521442,83.9633263 C60.5671425,83.9633263 60.0118389,83.4055884 60.0118389,82.7067774 C60.0118389,82.0128046 60.5770375,81.4502285 61.2521442,81.4502285 L72.7478558,81.4502285 Z M67.2076308,43.0004579 L67.607262,43.0128086 C69.6940709,43.1107808 75.5413605,43.8789788 79.7284363,49.2825771 L80.0022713,49.6590473 C81.2527867,51.4066566 83.2560404,54.68093 82.9729397,60.0888975 C82.5207297,65.6497657 79.7447418,67.8002342 78.2309732,69.8899788 C76.7163912,72.1011712 76.1414217,73.3572388 75.4856242,75.1674841 L75.4057743,75.5052508 C75.093452,76.9141249 74.8663997,78.9429468 74.7368927,78.9371307 C74.8268665,79.3563353 74.4457749,79.6910601 73.9881611,79.6910601 L60.0118389,79.6910601 C59.5542251,79.6910601 59.1731335,79.3563353 59.2631073,78.9371307 C59.122808,78.9434315 58.8680285,76.5618585 58.5143758,75.1674841 L58.2973705,74.5825237 C57.7192072,73.066321 57.1153219,71.8554832 55.7690268,69.8899788 C54.2552582,67.8002342 51.4792703,65.6497657 51.0270603,60.0888975 C50.7221827,54.2649325 53.068935,50.9155476 54.2715637,49.2825771 C58.7736728,43.4724125 65.2881313,43.0225158 66.8577003,43.0004579 L67.2076308,43.0004579 Z M69.4981721,49.0300054 C68.9275985,48.9390168 68.5335275,49.0540545 67.9735421,49.3875435 L67.9735421,49.3875435 L67.6466783,49.5903583 L67.5301465,49.6597161 C67.3095116,49.7857619 67.1590714,49.8371661 67.0000197,49.8387075 C66.8144667,49.836928 66.6406194,49.7672659 66.3533217,49.5903583 L66.3533217,49.5903583 L66.0264579,49.3875435 C65.4664725,49.0540545 65.0724015,48.9390168 64.5018279,49.0300054 C64.1190296,49.0910497 63.7796714,49.2545708 63.3779466,49.5360049 L63.3779466,49.5360049 L62.653796,50.076017 C62.5300444,50.1666297 62.4227155,50.2401885 62.3147118,50.3081267 C62.1690475,50.3997549 62.0057718,50.4898104 61.8083492,50.5893042 L61.8083492,50.5893042 L61.1771272,50.8967178 L60.8704179,51.0515198 C60.4922758,51.2560942 60.2586156,51.4398454 60.1328861,51.6913043 L60.1328861,51.6913043 L60.074418,51.8285903 C59.943625,52.210185 59.5352354,53.8613333 59.3801299,54.344103 L59.3801299,54.344103 L59.3396837,54.4676048 L59.2236505,54.7965425 C59.119193,55.0774897 58.9964248,55.3720917 58.8494686,55.7001 L58.8494686,55.7001 L58.7976135,55.8150615 L58.2783142,56.9375151 C58.1857211,57.1456389 58.1228462,57.3015843 58.0762728,57.4413044 L58.0762728,57.4413044 L58.0340224,57.5874757 C57.9671697,57.8675687 57.9948568,58.128854 58.1526461,58.6343521 L58.1526461,58.6343521 L58.2518295,58.9358787 L58.5474185,59.7638508 C58.5823358,59.8613915 58.6126247,59.9479626 58.6400364,60.0289731 L58.6400364,60.0289731 L58.7153912,60.2607321 L58.7665997,60.4326286 C58.8140232,60.5996414 58.8501388,60.752511 58.875372,60.8958054 C58.9260427,61.1835546 58.9091282,61.4273831 58.8277248,61.9167402 L58.8277248,61.9167402 L58.7771041,62.2453786 C58.701803,62.795247 58.7264719,63.0772701 58.9121645,63.4486552 C59.1712489,63.9668241 59.5377912,64.3366429 60.2523997,64.9000214 L60.2523997,64.9000214 L60.7103585,65.2626593 C60.8116085,65.3507596 60.9229545,65.4663574 61.0804008,65.6424918 L61.0804008,65.6424918 L61.285301,65.8724868 C61.5436557,66.1596284 61.6926715,66.3049347 61.8860218,66.4447567 C62.4686327,66.8660739 63.9208067,67.335753 64.5659072,67.335753 C65.1742687,67.335753 65.9713369,66.9597619 67.0008149,66.2192224 C68.0290884,66.9599625 68.8258936,67.335753 69.4340928,67.335753 C70.0791933,67.335753 71.5313673,66.8660739 72.1139782,66.4447567 C72.2520856,66.3448839 72.3675733,66.2422129 72.5164448,66.0870532 L72.5164448,66.0870532 L72.714699,65.8724868 L72.9195992,65.6424918 L73.0887109,65.4580736 C73.1645069,65.3782788 73.2288915,65.3155195 73.2896415,65.2626593 L73.2896415,65.2626593 L73.9191403,64.7630114 C74.5225529,64.2739762 74.8503415,63.9236433 75.0878355,63.4486552 C75.2735281,63.0772701 75.298197,62.795247 75.2228959,62.2453786 L75.2228959,62.2453786 L75.1475334,61.7623178 C75.0879474,61.3726568 75.0795874,61.1515824 75.124628,60.8958054 C75.1498612,60.752511 75.1859768,60.5996414 75.2334003,60.4326286 L75.2334003,60.4326286 L75.2846088,60.2607321 L75.3599636,60.0289731 L75.7481705,58.9358787 L75.8473539,58.6343521 C76.0194877,58.0828996 76.0367891,57.8220806 75.9454278,57.5104228 L75.9454278,57.5104228 L75.8937196,57.3552377 C75.8722674,57.2961783 75.8477775,57.2333724 75.8193915,57.164519 L75.8193915,57.164519 L75.7216858,56.9375151 L75.2023865,55.8150615 L75.0447577,55.4600488 C74.9433355,55.2256441 74.8546926,55.0072529 74.7763495,54.7965425 L74.7763495,54.7965425 L74.6603163,54.4676048 L74.5879493,54.2404869 C74.4378868,53.7373107 74.1425212,52.5634105 73.9866048,52.0264371 L73.9866048,52.0264371 L73.925582,51.8285903 L73.8822861,51.7228071 L73.8671139,51.6913043 C73.7413844,51.4398454 73.5077242,51.2560942 73.1295821,51.0515198 L73.1295821,51.0515198 L72.8228728,50.8967178 L72.049728,50.5162815 C71.9136911,50.4446844 71.7945364,50.3768479 71.6852882,50.3081267 C71.5772845,50.2401885 71.4699556,50.1666297 71.346204,50.076017 L71.346204,50.076017 L70.6220534,49.5360049 L70.4533955,49.4225645 C70.1224825,49.2099419 69.8262849,49.0823291 69.4981721,49.0300054 Z M69.141599,49.8161655 L69.2603687,49.8201486 L69.3700135,49.8336654 L69.4726133,49.8547317 C69.6440293,49.8978247 69.8193925,49.9814988 70.0266811,50.1157969 L70.0266811,50.1157969 L70.1911796,50.2283657 L70.8710504,50.7371448 C71.006484,50.8358037 71.1274903,50.9186853 71.2519696,50.9969873 C71.3795785,51.077258 71.5153792,51.1546314 71.6675158,51.2347726 L71.6675158,51.2347726 L72.7423457,51.7673004 L72.8382695,51.8210665 C73.0166679,51.9249401 73.1147449,52.0063108 73.1392161,52.0552531 L73.1392161,52.0552531 L73.1566364,52.0935212 L73.169823,52.1297886 C73.242531,52.3481993 73.4670708,53.2341844 73.6520745,53.9178787 L73.6520745,53.9178787 L73.7636761,54.3209707 C73.6942834,54.3476489 73.6313664,54.3936508 73.5836869,54.4576929 C72.8221597,55.4805623 72.2326213,55.952193 71.9123758,55.9230798 C71.6090651,55.8955061 71.0880206,55.4043401 70.4299035,54.4441708 C71.3550027,53.9333493 71.9591767,53.4087419 72.239485,52.8481254 C72.3399867,52.647122 72.258514,52.4027038 72.0575106,52.3022021 C71.8565071,52.2017004 71.6120889,52.2831731 71.5115872,52.4841765 C71.303421,52.900509 70.7528787,53.3575962 69.8564198,53.8286799 L69.8564198,53.8286799 L69.8068198,53.8535893 L68.7489537,53.5008465 L68.6774919,53.4839364 C68.4865162,53.4565951 68.2974216,53.5686894 68.2342523,53.7581972 L68.2342523,53.7581972 L68.2173421,53.8296591 C68.1900009,54.0206348 68.3020952,54.2097294 68.491603,54.2728987 L68.491603,54.2728987 L69.5773242,54.6347681 L69.6340968,54.7211235 C70.4831686,56.0012865 71.1857549,56.6741937 71.8386965,56.733552 C71.980143,56.7464108 72.123973,56.7321596 72.2709648,56.6912024 L72.2709648,56.6912024 L72.2571591,56.8479318 C72.1903107,57.4762191 71.9932236,57.8490722 71.6935617,57.9989031 C71.3213737,58.1849971 70.9627598,58.0953436 70.5356341,57.6682179 C70.3767269,57.5093108 70.1190875,57.5093108 69.9601804,57.6682179 C69.8012732,57.8271251 69.8012732,58.0847645 69.9601804,58.2436716 C70.6181406,58.9016318 71.3446126,59.0832498 72.0575106,58.7268009 C72.7680191,58.3715466 73.0962578,57.5509499 73.0962578,56.3283159 C73.0962578,56.2930644 73.0917751,56.2588598 73.0823571,56.2276033 C73.3876325,55.9730443 73.7092996,55.6245228 74.0523438,55.183054 C74.125681,55.3749149 74.2066363,55.5723267 74.2967936,55.7807623 L74.2967936,55.7807623 L74.5169059,56.2730671 L74.8571308,57.0027325 L74.9734624,57.2578994 C75.058248,57.4480943 75.1140718,57.5858456 75.151675,57.6986551 C75.1999734,57.8435503 75.1802576,58.030971 75.0495455,58.4490446 L75.0495455,58.4490446 L74.9169595,58.846389 L74.6339495,59.6377023 L74.5463535,59.8968707 L74.4493818,60.2143701 C74.3953189,60.4051466 74.3533337,60.5832356 74.3231453,60.7546695 C74.2597957,61.1144192 74.2700423,61.4035666 74.3403414,61.867594 L74.3403414,61.867594 L74.3926702,62.1936735 C74.4701313,62.6902562 74.4643473,62.8758873 74.3599378,63.0847063 C74.1860473,63.4324873 73.9185431,63.716744 73.3934692,64.1414625 L73.3934692,64.1414625 L72.8430476,64.5757848 L72.7609662,64.6439549 L72.5953527,64.370541 C72.0888722,63.5083718 71.9890787,62.9990747 71.4009577,62.4913123 L71.4009577,62.4913123 L71.2480852,62.3643776 L71.3227122,62.2647364 C71.6904215,61.731183 71.8755361,61.1050825 71.8755361,60.3973881 C71.8755361,60.1726594 71.6933575,59.9904809 71.4686289,59.9904809 C71.2439002,59.9904809 71.0617217,60.1726594 71.0617217,60.3973881 C71.0617217,61.1050143 70.8320224,61.6792626 70.3670876,62.1441973 L70.4084923,62.1000601 C69.4298524,62.5866561 68.7956802,62.8388314 68.6202784,62.8388314 L68.6202784,62.8388314 L68.5471363,62.8453872 C68.3573147,62.8798408 68.2133712,63.0459798 68.2133712,63.2457386 C68.2133712,63.4704673 68.3955497,63.6526458 68.6202784,63.6526458 C68.8927728,63.6526458 69.3536313,63.4955519 70.0542907,63.1733744 L70.0542907,63.1733744 L70.424842,62.9984916 L70.6176099,62.9043536 C71.252056,63.3876021 71.4460921,63.9875622 72.0594758,65.0473835 L72.0594758,65.0473835 L72.1790889,65.2494328 L71.968058,65.4823932 L71.8913362,65.5620623 C71.7946094,65.6600028 71.7180995,65.7267265 71.637094,65.7853059 C71.1932992,66.1062377 69.9080174,66.5219385 69.4340928,66.5219385 L69.4340928,66.5219385 L69.3500721,66.517538 L69.258574,66.5043232 C68.8777318,66.4338086 68.3193294,66.1512695 67.6061665,65.6509393 L67.6061665,65.6509393 L67.4142054,65.5131087 L67.4142054,60.2493569 L68.2866145,60.6854784 L68.6411595,61.7467851 L68.6705085,61.8141006 C68.7632209,61.983286 68.9663531,62.0673051 69.155861,62.0041358 C69.3690573,61.9330704 69.4842771,61.7026307 69.4132117,61.4894344 L69.4132117,61.4894344 L69.0849664,60.5073361 L70.1287269,59.4643933 L70.1758105,59.4080384 C70.2856722,59.2494519 70.2699777,59.0301904 70.1287269,58.8889396 C69.9698197,58.7300324 69.7121803,58.7300324 69.5532732,58.8889396 L69.5532732,58.8889396 L68.5397107,59.9018582 L67.4142054,59.3395124 L67.4142054,50.5934487 L67.5204603,50.5622907 L67.6507844,50.5107191 C67.738684,50.4723645 67.8291109,50.4260202 67.9250266,50.3714313 L67.9250266,50.3714313 L68.3912366,50.0859384 C68.7502056,49.8722139 68.9762395,49.7963601 69.2603687,49.8201486 Z M64.7396313,49.8201486 C65.0592766,49.7933865 65.3053951,49.8927343 65.7499812,50.1726225 L65.7499812,50.1726225 L66.0749734,50.3714313 C66.218847,50.4533147 66.3503707,50.5166476 66.4795397,50.5622907 L66.4795397,50.5622907 L66.5857423,50.5942625 L66.5859565,53.3417362 C65.8982357,54.2194698 65.2742457,54.5127823 64.6798816,54.314661 C64.0467559,54.1036191 63.7373918,53.5880122 63.7373918,52.666151 C63.7373918,52.4414223 63.5552132,52.2592437 63.3304845,52.2592437 C63.1057559,52.2592437 62.9235773,52.4414223 62.9235773,52.666151 C62.9235773,53.9144615 63.4280277,54.7552121 64.4225308,55.0867131 C65.1661393,55.3345826 65.892404,55.1348768 66.5860485,54.529247 L66.5860485,54.529247 L66.5857423,65.5131087 L66.3938335,65.6509393 C65.6212404,66.1929636 65.0302759,66.479386 64.6499279,66.517538 L64.6499279,66.517538 L64.5659072,66.5219385 C64.0919826,66.5219385 62.8067008,66.1062377 62.362906,65.7853059 C62.3021519,65.7413713 62.2439265,65.6928556 62.1778044,65.630025 L62.1778044,65.630025 L62.0806477,65.5336556 C61.6065061,64.0939621 61.8263478,63.2320214 62.6986446,62.7958731 C63.5717549,62.3593179 64.3023633,62.6724358 65.0161006,63.8619979 C65.1317225,64.0547011 65.3816694,64.1171878 65.5743727,64.0015659 C65.7670759,63.885944 65.8295626,63.635997 65.7139407,63.4432938 C65.4623584,63.02399 65.191497,62.6821708 64.9053099,62.4206541 C65.367409,62.0993495 65.6728752,61.8582835 65.9014217,61.6498652 L65.9014217,61.6498652 L66.0596547,61.4989294 C66.2185619,61.3400222 66.2185619,61.0823828 66.0596547,60.9234757 C65.9007476,60.7645685 65.6431082,60.7645685 65.484201,60.9234757 C65.3170733,61.0906034 65.022009,61.3254004 64.6029374,61.623577 L64.6029374,61.623577 L64.2654436,61.8590261 L64.1591295,61.9376147 C63.5931498,61.7071438 62.9798519,61.7453972 62.3346957,62.0679753 C61.3881319,62.5412572 60.9602667,63.3653144 61.03452,64.4794766 L61.03452,64.4794766 L60.6065308,64.1414625 C60.0814569,63.716744 59.8139527,63.4324873 59.6400622,63.0847063 C59.5451445,62.8948709 59.5317355,62.724199 59.5882796,62.3216466 L59.5882796,62.3216466 L59.6596586,61.867594 C59.7299577,61.4035666 59.7402043,61.1144192 59.6768547,60.7546695 C59.6366035,60.5260909 59.5753801,60.2856811 59.492519,60.0191411 L59.492519,60.0191411 L59.4536465,59.8968707 L59.3660505,59.6377023 L59.0830405,58.846389 C58.8355553,58.1363635 58.7868543,57.8830672 58.848325,57.6986551 C58.9009694,57.5407218 58.9893264,57.3339026 59.1428692,57.0027325 L59.1428692,57.0027325 L59.4830941,56.2730671 L59.7032064,55.7807623 C59.8454263,55.4519625 59.9647481,55.1505942 60.067389,54.8551747 L60.067389,54.8551747 L60.0845766,55.3189098 C60.355499,55.9498181 60.7164932,56.4589069 61.1690034,56.8425149 C60.7391874,57.6900381 60.8042824,58.5623689 61.3642884,59.4023779 C62.0307769,60.4021107 63.070517,60.5754007 64.3262734,59.9475225 C64.5272768,59.8470208 64.6087496,59.6026026 64.5082479,59.4015992 C64.4077462,59.2005958 64.163328,59.1191231 63.9623245,59.2196248 C63.0479091,59.6768325 62.4600204,59.578851 62.0414229,58.9509549 C61.6639463,58.3847399 61.6021129,57.8474608 61.8567449,57.2921963 C62.6896172,57.6963407 63.5453881,57.6235387 64.3700105,57.0737904 C64.556996,56.9491334 64.6075233,56.6964972 64.4828663,56.5095116 C64.3582092,56.3225261 64.105573,56.2719988 63.9185875,56.3966559 C63.2414529,56.8480789 62.6057017,56.8480789 61.9285672,56.3966559 C61.2144734,55.9205934 60.7259551,55.0656863 60.4742322,53.8070715 C60.4637994,53.7549079 60.4438244,53.7070843 60.4157599,53.6650113 C60.5619196,53.1163918 60.7174294,52.512006 60.7981555,52.2344395 L60.7981555,52.2344395 L60.8433636,52.0935212 L60.8607839,52.0552531 C60.8893336,51.9981537 61.018069,51.8969157 61.2576543,51.7673004 L61.2576543,51.7673004 L62.3324842,51.2347726 C62.4846208,51.1546314 62.6204215,51.077258 62.7480304,50.9969873 C62.9140028,50.8925846 63.0738009,50.7800405 63.2698552,50.6328121 L63.2698552,50.6328121 L63.8088204,50.2283657 L63.9733189,50.1157969 C64.2220652,49.9546392 64.424839,49.8663799 64.6299865,49.8336654 L64.6299865,49.8336654 Z" fill="url(#linearGradient-1)"></path>
    </g>
</svg>

<svg xmlns="http://www.w3.org/2000/svg" viewBox="0 0 134 134">
  <defs>
    <linearGradient x1="67.094%" y1="9.942%" x2="27.777%" y2="100%" id="prefix__fcret__a">
      <stop stop-color="#C9E7F2" offset="0%" />
      <stop stop-color="#D6B1E0" offset="51.258%" />
      <stop stop-color="#E8D49E" offset="100%" />
    </linearGradient>
  </defs>
  <path
    d="M69.49 88.487c.65 0 1.183.49 1.247 1.127l.007.13c0 .693-.563 1.256-1.254 1.256h-4.98a1.252 1.252 0 01-1.254-1.257c0-.694.563-1.256 1.254-1.256h4.98zm3.258-3.518c.642 0 1.17.49 1.234 1.127l.006.13c0 .693-.565 1.256-1.24 1.256H61.252c-.685 0-1.24-.558-1.24-1.257 0-.694.565-1.256 1.24-1.256h11.496zm0-3.519c.642 0 1.17.49 1.234 1.128l.006.129c0 .694-.565 1.256-1.24 1.256H61.252c-.685 0-1.24-.557-1.24-1.256 0-.694.565-1.257 1.24-1.257h11.496zM67.208 43l.4.013c2.086.098 7.933.866 12.12 6.27l.274.376c1.25 1.748 3.254 5.022 2.97 10.43-.451 5.56-3.227 7.711-4.741 9.801-1.515 2.211-2.09 3.467-2.745 5.277l-.08.338c-.313 1.41-.54 3.438-.67 3.432.09.42-.29.754-.748.754H60.012c-.458 0-.839-.335-.749-.754-.14.006-.395-2.375-.749-3.77l-.217-.584c-.578-1.517-1.182-2.728-2.528-4.693-1.514-2.09-4.29-4.24-4.742-9.801-.305-5.824 2.042-9.173 3.245-10.806 4.502-5.81 11.016-6.26 12.586-6.283h.35zm2.29 6.03c-.57-.091-.964.024-1.524.358l-.327.202-.117.07c-.22.126-.37.177-.53.179-.186-.002-.36-.072-.647-.249l-.327-.202c-.56-.334-.954-.449-1.524-.358-.383.061-.722.225-1.124.506l-.724.54c-.124.09-.231.164-.34.232a6.106 6.106 0 01-.506.281l-.63.308-.308.155c-.378.204-.611.388-.737.64l-.059.137c-.13.381-.539 2.032-.694 2.515l-.04.124-.116.329c-.105.28-.228.575-.375.903l-.051.115-.52 1.123a5.625 5.625 0 00-.202.503l-.042.146c-.067.28-.04.542.119 1.047l.099.302.295.828c.035.097.066.184.093.265l.075.232.052.172c.047.167.083.32.108.463.051.288.034.531-.047 1.02l-.05.33c-.076.55-.052.831.134 1.203.26.518.626.888 1.34 1.451l.458.363c.102.088.213.203.37.38l.205.23c.259.287.408.432.601.572.583.421 2.035.89 2.68.89.608 0 1.405-.375 2.435-1.116 1.028.741 1.825 1.117 2.433 1.117.645 0 2.097-.47 2.68-.891.138-.1.254-.203.402-.358l.199-.215.205-.23.169-.184c.076-.08.14-.142.2-.195l.63-.5c.604-.489.931-.84 1.169-1.314.186-.372.21-.654.135-1.204l-.075-.483c-.06-.39-.068-.61-.023-.866.025-.143.061-.296.108-.463l.052-.172.075-.232.388-1.093.1-.302c.171-.551.189-.812.097-1.124l-.051-.155a4.8 4.8 0 00-.075-.19l-.097-.227-.52-1.123-.157-.355a13.64 13.64 0 01-.269-.663l-.116-.33-.072-.227c-.15-.503-.445-1.677-.601-2.214l-.061-.197-.044-.106-.015-.032c-.126-.251-.36-.435-.737-.64l-.307-.154-.773-.38a5.434 5.434 0 01-.704-.441l-.724-.54-.169-.113c-.33-.213-.627-.34-.955-.393zm-.356.786l.118.004.11.014.103.02c.171.044.346.127.554.262l.164.112.68.51a6.21 6.21 0 00.796.498v-.001l1.075.532.096.054c.179.104.277.185.301.234l.018.039.013.036c.073.218.297 1.104.482 1.788l.112.403a.405.405 0 00-.18.137c-.762 1.023-1.351 1.494-1.672 1.465-.303-.027-.824-.519-1.482-1.479.925-.51 1.53-1.035 1.81-1.596a.407.407 0 10-.728-.364c-.209.417-.76.874-1.656 1.345l-.05.025-1.057-.353-.072-.017a.407.407 0 00-.443.274l-.017.072a.407.407 0 00.275.443l1.085.362.057.086c.85 1.28 1.552 1.953 2.205 2.013.141.012.285-.002.432-.043l-.014.157c-.067.628-.264 1.001-.563 1.15-.373.187-.731.097-1.158-.33a.407.407 0 00-.576.576c.658.658 1.385.84 2.098.483.71-.355 1.038-1.176 1.038-2.399a.35.35 0 00-.014-.1c.306-.255.627-.603.97-1.045.074.192.155.39.245.598l.22.492.34.73.116.255c.085.19.141.328.179.44.048.146.028.333-.102.751l-.133.397-.283.792-.088.259-.097.317c-.054.191-.096.37-.126.54-.063.36-.053.65.017 1.114l.053.326c.077.496.071.682-.033.89-.174.348-.441.633-.967 1.057l-.55.435-.082.068-.166-.273c-.506-.863-.606-1.372-1.194-1.88l-.153-.127.075-.1c.367-.533.553-1.159.553-1.867a.407.407 0 10-.814 0c0 .708-.23 1.282-.695 1.747l.041-.044c-.978.487-1.612.739-1.788.739l-.073.006a.407.407 0 00.073.808c.273 0 .734-.157 1.434-.48l.37-.175.194-.094c.634.484.828 1.084 1.441 2.143l.12.202-.21.233-.078.08a1.977 1.977 0 01-.254.223c-.444.321-1.729.737-2.203.737l-.084-.004-.091-.014c-.381-.07-.94-.353-1.653-.853l-.192-.138V60.25l.873.436.354 1.062.03.067a.407.407 0 00.742-.325l-.328-.982 1.044-1.043.047-.056a.407.407 0 00-.623-.52l-1.013 1.014-1.126-.562v-8.747l.106-.03.13-.052c.089-.039.18-.085.275-.14l.466-.285c.36-.214.585-.29.87-.266zm-4.402.004c.32-.027.565.073 1.01.353l.325.198c.144.082.275.146.405.191l.106.032v2.748c-.688.877-1.312 1.17-1.906.973-.633-.211-.943-.727-.943-1.649a.407.407 0 10-.813 0c0 1.248.504 2.09 1.499 2.42.743.249 1.47.049 2.163-.557v10.984l-.192.138c-.773.542-1.364.828-1.744.867l-.084.004c-.474 0-1.76-.416-2.203-.737a1.762 1.762 0 01-.185-.155l-.097-.096c-.474-1.44-.255-2.302.618-2.738.873-.437 1.603-.124 2.317 1.066a.407.407 0 00.698-.419 4.54 4.54 0 00-.809-1.022c.462-.322.768-.563.996-.771l.159-.151a.407.407 0 10-.576-.576c-.167.168-.462.402-.881.7l-.338.236-.106.079c-.566-.23-1.18-.193-1.824.13-.947.473-1.375 1.297-1.3 2.411l-.428-.338c-.526-.424-.793-.709-.967-1.056-.095-.19-.108-.36-.052-.763l.072-.454c.07-.464.08-.754.017-1.113a5.963 5.963 0 00-.184-.736l-.04-.122-.087-.26-.283-.79c-.247-.71-.296-.964-.235-1.148.053-.158.141-.365.295-.696l.34-.73.22-.492c.142-.329.262-.63.364-.926l.018.464c.27.63.631 1.14 1.084 1.524-.43.847-.365 1.72.195 2.56.667 1 1.707 1.172 2.962.545a.407.407 0 10-.364-.728c-.914.457-1.502.359-1.92-.269-.378-.566-.44-1.104-.185-1.659.833.404 1.688.332 2.513-.218a.407.407 0 00-.451-.677c-.678.451-1.313.451-1.99 0-.715-.476-1.203-1.331-1.455-2.59a.394.394 0 00-.058-.142c.146-.549.301-1.153.382-1.43l.045-.141.018-.039c.028-.057.157-.158.397-.288l1.074-.532a6.21 6.21 0 00.938-.602l.539-.405.164-.112c.25-.161.452-.25.657-.282z"
    fill="url(#prefix__fcret__a)" fill-rule="evenodd" opacity=".827" />
</svg>
